X:237
T: O DU DEUTSCHLAND ICH MUSS MARSCHIEREN
N: E1375A
O: Europa, Mitteleuropa, Deutschland
R: Staende -, Soldaten -, Kriegs - Lied
M: 3/4
L: 1/8
K: G
DD | G2GABc | edd2
Bd | dcc2dc | B4
DD | G2GABc | edd2
Bd | dcc2dc | B4
dB | BAA2ec | cBB2
dB | BAA2ec | cBB2
DD | G2GABc | edd2
Bd | dcc2dc | B4

@@@ Tune index: 4921
